X: 28704
T: My Darling Asleep
R: jig
M: 6/8
K: Dmajor
e|fd d/d/d cAGA|BGdB A3 G|FABc defd|gfed e2
ag|fd d/d/d cAGA|BGdB A3 G|FABc defa|gece d3:|
G|FAdA BAdA|FAdA BAdA|FAdc defd|gfed eage|
fd d/d/d cAGA|BGdB A3 G|FABc defa|gece d3:|

